img/icons/Singing.svg

<svg width="41" height="46" viewBox="0 0 41 46" fill="none" xmlns="http://www.w3.org/2000/svg">
<path d="M3.13 41.12C2.57667 41.12 2.04 41.0467 1.52 40.9C1.00667 40.7467 0.593333 40.55 0.28 40.31L0.83 39.09C1.13 39.31 1.48667 39.4867 1.9 39.62C2.31333 39.7533 2.72667 39.82 3.14 39.82C3.6 39.82 3.94 39.7533 4.16 39.62C4.38 39.48 4.49 39.2967 4.49 39.07C4.49 38.9033 4.42333 38.7667 4.29 38.66C4.16333 38.5467 3.99667 38.4567 3.79 38.39C3.59 38.3233 3.31667 38.25 2.97 38.17C2.43667 38.0433 2 37.9167 1.66 37.79C1.32 37.6633 1.02667 37.46 0.78 37.18C0.54 36.9 0.42 36.5267 0.42 36.06C0.42 35.6533 0.53 35.2867 0.75 34.96C0.97 34.6267 1.3 34.3633 1.74 34.17C2.18667 33.9767 2.73 33.88 3.37 33.88C3.81667 33.88 4.25333 33.9333 4.68 34.04C5.10667 34.1467 5.48 34.3 5.8 34.5L5.3 35.73C4.65333 35.3633 4.00667 35.18 3.36 35.18C2.90667 35.18 2.57 35.2533 2.35 35.4C2.13667 35.5467 2.03 35.74 2.03 35.98C2.03 36.22 2.15333 36.4 2.4 36.52C2.65333 36.6333 3.03667 36.7467 3.55 36.86C4.08333 36.9867 4.52 37.1133 4.86 37.24C5.2 37.3667 5.49 37.5667 5.73 37.84C5.97667 38.1133 6.1 38.4833 6.1 38.95C6.1 39.35 5.98667 39.7167 5.76 40.05C5.54 40.3767 5.20667 40.6367 4.76 40.83C4.31333 41.0233 3.77 41.12 3.13 41.12ZM7.09695 35.62H8.65695V41H7.09695V35.62ZM7.87695 34.87C7.59029 34.87 7.35695 34.7867 7.17695 34.62C6.99695 34.4533 6.90695 34.2467 6.90695 34C6.90695 33.7533 6.99695 33.5467 7.17695 33.38C7.35695 33.2133 7.59029 33.13 7.87695 33.13C8.16362 33.13 8.39695 33.21 8.57695 33.37C8.75695 33.53 8.84695 33.73 8.84695 33.97C8.84695 34.23 8.75695 34.4467 8.57695 34.62C8.39695 34.7867 8.16362 34.87 7.87695 34.87ZM13.3748 35.54C14.0414 35.54 14.5781 35.74 14.9848 36.14C15.3981 36.54 15.6048 37.1333 15.6048 37.92V41H14.0448V38.16C14.0448 37.7333 13.9514 37.4167 13.7648 37.21C13.5781 36.9967 13.3081 36.89 12.9548 36.89C12.5614 36.89 12.2481 37.0133 12.0148 37.26C11.7814 37.5 11.6648 37.86 11.6648 38.34V41H10.1048V35.62H11.5948V36.25C11.8014 36.0233 12.0581 35.85 12.3648 35.73C12.6714 35.6033 13.0081 35.54 13.3748 35.54ZM22.6274 35.62V40.1C22.6274 41.0867 22.3708 41.82 21.8574 42.3C21.3441 42.78 20.5941 43.02 19.6074 43.02C19.0874 43.02 18.5941 42.9567 18.1274 42.83C17.6608 42.7033 17.2741 42.52 16.9674 42.28L17.5874 41.16C17.8141 41.3467 18.1008 41.4933 18.4474 41.6C18.7941 41.7133 19.1408 41.77 19.4874 41.77C20.0274 41.77 20.4241 41.6467 20.6774 41.4C20.9374 41.16 21.0674 40.7933 21.0674 40.3V40.07C20.6608 40.5167 20.0941 40.74 19.3674 40.74C18.8741 40.74 18.4208 40.6333 18.0074 40.42C17.6008 40.2 17.2774 39.8933 17.0374 39.5C16.7974 39.1067 16.6774 38.6533 16.6774 38.14C16.6774 37.6267 16.7974 37.1733 17.0374 36.78C17.2774 36.3867 17.6008 36.0833 18.0074 35.87C18.4208 35.65 18.8741 35.54 19.3674 35.54C20.1474 35.54 20.7408 35.7967 21.1474 36.31V35.62H22.6274ZM19.6774 39.46C20.0908 39.46 20.4274 39.34 20.6874 39.1C20.9541 38.8533 21.0874 38.5333 21.0874 38.14C21.0874 37.7467 20.9541 37.43 20.6874 37.19C20.4274 36.9433 20.0908 36.82 19.6774 36.82C19.2641 36.82 18.9241 36.9433 18.6574 37.19C18.3908 37.43 18.2574 37.7467 18.2574 38.14C18.2574 38.5333 18.3908 38.8533 18.6574 39.1C18.9241 39.34 19.2641 39.46 19.6774 39.46ZM24.0794 35.62H25.6394V41H24.0794V35.62ZM24.8594 34.87C24.5727 34.87 24.3394 34.7867 24.1594 34.62C23.9794 34.4533 23.8894 34.2467 23.8894 34C23.8894 33.7533 23.9794 33.5467 24.1594 33.38C24.3394 33.2133 24.5727 33.13 24.8594 33.13C25.146 33.13 25.3794 33.21 25.5594 33.37C25.7394 33.53 25.8294 33.73 25.8294 33.97C25.8294 34.23 25.7394 34.4467 25.5594 34.62C25.3794 34.7867 25.146 34.87 24.8594 34.87ZM30.3572 35.54C31.0239 35.54 31.5605 35.74 31.9672 36.14C32.3805 36.54 32.5872 37.1333 32.5872 37.92V41H31.0272V38.16C31.0272 37.7333 30.9339 37.4167 30.7472 37.21C30.5605 36.9967 30.2905 36.89 29.9372 36.89C29.5439 36.89 29.2305 37.0133 28.9972 37.26C28.7639 37.5 28.6472 37.86 28.6472 38.34V41H27.0872V35.62H28.5772V36.25C28.7839 36.0233 29.0405 35.85 29.3472 35.73C29.6539 35.6033 29.9905 35.54 30.3572 35.54ZM39.6098 35.62V40.1C39.6098 41.0867 39.3532 41.82 38.8398 42.3C38.3265 42.78 37.5765 43.02 36.5898 43.02C36.0698 43.02 35.5765 42.9567 35.1098 42.83C34.6432 42.7033 34.2565 42.52 33.9498 42.28L34.5698 41.16C34.7965 41.3467 35.0832 41.4933 35.4298 41.6C35.7765 41.7133 36.1232 41.77 36.4698 41.77C37.0098 41.77 37.4065 41.6467 37.6598 41.4C37.9198 41.16 38.0498 40.7933 38.0498 40.3V40.07C37.6432 40.5167 37.0765 40.74 36.3498 40.74C35.8565 40.74 35.4032 40.6333 34.9898 40.42C34.5832 40.2 34.2598 39.8933 34.0198 39.5C33.7798 39.1067 33.6598 38.6533 33.6598 38.14C33.6598 37.6267 33.7798 37.1733 34.0198 36.78C34.2598 36.3867 34.5832 36.0833 34.9898 35.87C35.4032 35.65 35.8565 35.54 36.3498 35.54C37.1298 35.54 37.7232 35.7967 38.1298 36.31V35.62H39.6098ZM36.6598 39.46C37.0732 39.46 37.4098 39.34 37.6698 39.1C37.9365 38.8533 38.0698 38.5333 38.0698 38.14C38.0698 37.7467 37.9365 37.43 37.6698 37.19C37.4098 36.9433 37.0732 36.82 36.6598 36.82C36.2465 36.82 35.9065 36.9433 35.6398 37.19C35.3732 37.43 35.2398 37.7467 35.2398 38.14C35.2398 38.5333 35.3732 38.8533 35.6398 39.1C35.9065 39.34 36.2465 39.46 36.6598 39.46Z" fill="#E5E5E5"/>
<path d="M4.75037 29.1454L7.02332 27.2361L8.47329 28.4543C8.86021 28.7791 9.48159 28.7915 9.8864 28.4839L24.3885 17.4621L25.149 18.1009C25.549 18.4369 26.1987 18.4371 26.5989 18.1009L29.4989 15.6647C29.5734 15.6021 29.634 15.5324 29.6807 15.4581C31.4527 15.3112 33.1398 14.7372 34.5332 13.8032L35.2993 14.4468C35.6995 14.783 36.3487 14.7832 36.7492 14.4468C37.1495 14.1103 37.1495 13.565 36.7492 13.2288L35.9839 12.5859C38.8745 9.55625 38.666 5.0944 35.299 2.26637C31.9462 -0.549994 26.6342 -0.741326 23.0143 1.69148L22.2488 1.0484C21.8485 0.712165 21.1991 0.712165 20.7988 1.0484C20.3983 1.38485 20.3983 1.93014 20.7988 2.26637L21.5646 2.9099C20.4527 4.08032 19.7694 5.49769 19.5948 6.98618C19.5048 7.0261 19.4217 7.07724 19.3486 7.1387L16.4486 9.57465C16.0481 9.9111 16.0481 10.4564 16.4486 10.7926L17.2089 11.4314L4.08788 23.6132C3.72151 23.9537 3.73673 24.4756 4.12312 24.8002L5.57336 26.0182L3.30041 27.9274C2.89986 28.2639 2.89986 28.8092 3.30041 29.1454C3.70068 29.4819 4.34983 29.4819 4.75037 29.1454ZM33.849 3.48456C36.42 5.64416 36.6125 9.01815 34.5225 11.3583L24.4755 2.91887C27.259 1.16481 31.2762 1.32317 33.849 3.48456ZM33.0714 12.5754C31.8161 13.3622 30.2791 13.7866 28.6967 13.7727L21.601 7.81251C21.5844 6.48306 22.0896 5.19197 23.0266 4.13796L33.0714 12.5754ZM20.0738 8.96566L27.3239 15.0557L25.8739 16.2739L18.6236 10.1836L20.0738 8.96566ZM12.2787 24.3426L9.01803 21.6036L18.6607 12.651L22.9366 16.2425L12.2787 24.3426ZM7.64043 22.8824L10.7564 25.4998L9.23379 26.6568L6.26309 24.1614L7.64043 22.8824Z" fill="#E5E5E5"/>
</svg>

<svg width="41" height="46" fill="none" xmlns="http://www.w3.org/2000/svg"><path d="M3.13 41.12c-.553 0-1.09-.073-1.61-.22-.513-.153-.927-.35-1.24-.59l.55-1.22c.3.22.657.397 1.07.53.413.133.827.2 1.24.2.46 0 .8-.067 1.02-.2.22-.14.33-.323.33-.55a.502.502 0 00-.2-.41 1.372 1.372 0 00-.5-.27c-.2-.067-.473-.14-.82-.22-.533-.127-.97-.253-1.31-.38a2.167 2.167 0 01-.88-.61c-.24-.28-.36-.653-.36-1.12 0-.407.11-.773.33-1.1.22-.333.55-.597.99-.79.447-.193.99-.29 1.63-.29.447 0 .883.053 1.31.16.427.107.8.26 1.12.46l-.5 1.23c-.647-.367-1.293-.55-1.94-.55-.453 0-.79.073-1.01.22-.213.147-.32.34-.32.58 0 .24.123.42.37.54.253.113.637.227 1.15.34.533.127.97.253 1.31.38.34.127.63.327.87.6.247.273.37.643.37 1.11 0 .4-.113.767-.34 1.1-.22.327-.553.587-1 .78-.447.193-.99.29-1.63.29zm3.967-5.5h1.56V41h-1.56v-5.38zm.78-.75c-.287 0-.52-.083-.7-.25a.81.81 0 01-.27-.62.81.81 0 01.27-.62c.18-.167.413-.25.7-.25s.52.08.7.24c.18.16.27.36.27.6 0 .26-.09.477-.27.65-.18.167-.413.25-.7.25zm5.498.67c.666 0 1.203.2 1.61.6.413.4.62.993.62 1.78V41h-1.56v-2.84c0-.427-.094-.743-.28-.95-.187-.213-.457-.32-.81-.32-.394 0-.707.123-.94.37-.234.24-.35.6-.35 1.08V41h-1.56v-5.38h1.49v.63c.206-.227.463-.4.77-.52a2.62 2.62 0 011.01-.19zm9.252.08v4.48c0 .987-.256 1.72-.77 2.2-.513.48-1.263.72-2.25.72-.52 0-1.013-.063-1.48-.19-.466-.127-.853-.31-1.16-.55l.62-1.12c.227.187.514.333.86.44.347.113.694.17 1.04.17.54 0 .937-.123 1.19-.37.26-.24.39-.607.39-1.1v-.23c-.406.447-.973.67-1.7.67-.493 0-.946-.107-1.36-.32a2.523 2.523 0 01-.97-.92 2.558 2.558 0 01-.36-1.36c0-.513.12-.967.36-1.36a2.45 2.45 0 01.97-.91 2.85 2.85 0 011.36-.33c.78 0 1.374.257 1.78.77v-.69h1.48zm-2.95 3.84c.414 0 .75-.12 1.01-.36.267-.247.4-.567.4-.96s-.133-.71-.4-.95c-.26-.247-.596-.37-1.01-.37-.413 0-.753.123-1.02.37-.266.24-.4.557-.4.95 0 .393.134.713.4.96.267.24.607.36 1.02.36zm4.402-3.84h1.56V41h-1.56v-5.38zm.78-.75c-.286 0-.52-.083-.7-.25a.81.81 0 01-.27-.62.81.81 0 01.27-.62c.18-.167.414-.25.7-.25.287 0 .52.08.7.24.18.16.27.36.27.6 0 .26-.09.477-.27.65-.18.167-.413.25-.7.25zm5.498.67c.667 0 1.204.2 1.61.6.413.4.62.993.62 1.78V41h-1.56v-2.84c0-.427-.093-.743-.28-.95-.186-.213-.456-.32-.81-.32-.393 0-.707.123-.94.37-.233.24-.35.6-.35 1.08V41h-1.56v-5.38h1.49v.63c.207-.227.463-.4.77-.52a2.62 2.62 0 011.01-.19zm9.253.08v4.48c0 .987-.257 1.72-.77 2.2-.514.48-1.264.72-2.25.72a5.61 5.61 0 01-1.48-.19c-.467-.127-.853-.31-1.16-.55l.62-1.12c.227.187.513.333.86.44.346.113.693.17 1.04.17.54 0 .937-.123 1.19-.37.26-.24.39-.607.39-1.1v-.23c-.407.447-.973.67-1.7.67-.494 0-.947-.107-1.36-.32a2.523 2.523 0 01-.97-.92 2.558 2.558 0 01-.36-1.36c0-.513.12-.967.36-1.36a2.45 2.45 0 01.97-.91 2.85 2.85 0 011.36-.33c.78 0 1.373.257 1.78.77v-.69h1.48zm-2.95 3.84c.413 0 .75-.12 1.01-.36.267-.247.4-.567.4-.96s-.133-.71-.4-.95c-.26-.247-.597-.37-1.01-.37-.413 0-.753.123-1.02.37-.267.24-.4.557-.4.95 0 .393.133.713.4.96.267.24.606.36 1.02.36zM4.75 29.145l2.273-1.909 1.45 1.218c.387.325 1.009.337 1.413.03L24.39 17.462l.76.639c.4.336 1.05.336 1.45 0l2.9-2.436a.887.887 0 00.182-.207c1.772-.147 3.459-.72 4.852-1.655l.766.644c.4.336 1.05.336 1.45 0 .4-.337.4-.882 0-1.218l-.765-.643c2.89-3.03 2.682-7.492-.685-10.32C31.946-.55 26.634-.74 23.014 1.691l-.765-.643a1.168 1.168 0 00-1.45 0c-.4.337-.4.882 0 1.218l.766.644c-1.112 1.17-1.796 2.588-1.97 4.076-.09.04-.173.091-.246.153l-2.9 2.436c-.4.336-.4.881 0 1.218l.76.638L4.088 23.613c-.366.34-.351.863.035 1.187l1.45 1.218-2.273 1.91c-.4.336-.4.881 0 1.217.4.337 1.05.337 1.45 0zm29.1-25.66c2.571 2.16 2.764 5.533.674 7.873l-10.048-8.44c2.784-1.753 6.801-1.595 9.374.567zm-.778 9.09c-1.255.787-2.792 1.212-4.374 1.198L21.6 7.813c-.017-1.33.489-2.621 1.426-3.675l10.044 8.437zm-12.997-3.61l7.25 6.09-1.45 1.219-7.25-6.09 1.45-1.218zM12.28 24.343l-3.261-2.74 9.643-8.952 4.276 3.591-10.658 8.1zm-4.639-1.46l3.116 2.617-1.522 1.157-2.97-2.496 1.376-1.279z" fill="#E5E5E5"/></svg>
